icon/cg/debug.svg

<svg viewBox="0 0 24 24" fill="none" xmlns="http://www.w3.org/2000/svg" height="1em" width="1em">
  <path d="M10 11C10 10.4477 10.4477 10 11 10H13C13.5523 10 14 10.4477 14 11C14 11.5523 13.5523 12 13 12H11C10.4477 12 10 11.5523 10 11Z" fill="currentColor"/>
  <path d="M11 14C10.4477 14 10 14.4477 10 15C10 15.5523 10.4477 16 11 16H13C13.5523 16 14 15.5523 14 15C14 14.4477 13.5523 14 13 14H11Z" fill="currentColor"/>
  <path fill-rule="evenodd" clip-rule="evenodd" d="M9.09447 4.74918C8.41606 4.03243 8 3.0648 8 2H10C10 3.10457 10.8954 4 12 4C13.1046 4 14 3.10457 14 2H16C16 3.0648 15.5839 4.03243 14.9055 4.74918C16.1782 5.45491 17.1673 6.6099 17.6586 8H19C19.5523 8 20 8.44772 20 9C20 9.55229 19.5523 10 19 10H18V12H19C19.5523 12 20 12.4477 20 13C20 13.5523 19.5523 14 19 14H18V16H19C19.5523 16 20 16.4477 20 17C20 17.5523 19.5523 18 19 18H17.6586C16.8349 20.3304 14.6124 22 12 22C9.38756 22 7.16508 20.3304 6.34141 18H5C4.44772 18 4 17.5523 4 17C4 16.4477 4.44772 16 5 16H6V14H5C4.44772 14 4 13.5523 4 13C4 12.4477 4.44772 12 5 12H6V10H5C4.44772 10 4 9.55229 4 9C4 8.44772 4.44772 8 5 8H6.34141C6.83274 6.6099 7.82181 5.45491 9.09447 4.74918ZM8 16V10C8 7.79086 9.79086 6 12 6C14.2091 6 16 7.79086 16 10V16C16 18.2091 14.2091 20 12 20C9.79086 20 8 18.2091 8 16Z" fill="currentColor"/>
</svg>

<svg width="24" height="24" fill="none" xmlns="http://www.w3.org/2000/svg"><path d="M10 11a1 1 0 0 1 1-1h2a1 1 0 1 1 0 2h-2a1 1 0 0 1-1-1ZM11 14a1 1 0 1 0 0 2h2a1 1 0 1 0 0-2h-2Z" fill="currentColor"/><path fill-rule="evenodd" clip-rule="evenodd" d="M9.094 4.75A3.986 3.986 0 0 1 8 2h2a2 2 0 1 0 4 0h2a3.986 3.986 0 0 1-1.095 2.75A6.02 6.02 0 0 1 17.66 8H19a1 1 0 1 1 0 2h-1v2h1a1 1 0 1 1 0 2h-1v2h1a1 1 0 1 1 0 2h-1.341A6.003 6.003 0 0 1 6.34 18H5a1 1 0 1 1 0-2h1v-2H5a1 1 0 1 1 0-2h1v-2H5a1 1 0 1 1 0-2h1.341a6.02 6.02 0 0 1 2.753-3.25ZM8 16v-6a4 4 0 1 1 8 0v6a4 4 0 0 1-8 0Z" fill="currentColor"/></svg>
